X: 14
T: Missa Cucu / Sanctus
N: Derived from Mar1003d-Missa_Cucu-Sanctus.krn
C: Johannes Martini
%%abc-version 2.0
%%abcx-abcm2ps-target-version 5.9.1 (29 Sep 2008)
%%abc-creator hum2abc beta
%%abcx-conversion-date 2019/02/17 07:19:40
%%abc-edited-by Jesse Rodin
%%abc-edited-by Chris Gage 11-21-2013
%%abcx-initial-encoding-date 2015/03/05/
%%humdrum-veritas 3997936905
%%humdrum-veritas-data 1856765809
%%linebreak <none>
%%barnumbers 0
L: 1/4
M: 3/1
Q: 1/2=120
%%staves [1 2 3 4]
V: 1 clef=treble
V: 2 clef=treble-8
V: 3 clef=treble-8
V: 4 clef=bass
K: C
[V:1] A8G4 | 
[V:2] d8B2c2 | 
[V:3] z12 | 
[V:4] D,8E,4 | 
[V:1] F6E2D4 | 
[V:2] d4D2E2F2G2 | 
[V:3] z12 | 
[V:4] D,6C,2_B,,4 | 
[V:1] C2E4DCB,4 | 
[V:2] A2c4BA^G4 | 
[V:3] z12 | 
[V:4] A,,4C,2D,2E,4 | 
[V:1] A,4z2E2F2G2 | 
[V:2] A4c4d2e2 | 
[V:3] z12 | 
[V:4] z2A,,4A,,2D,2C,2 | 
[V:1] A2B3AA4^G2 | 
[V:2] A2d4c2B4 | 
[V:3] z12 | 
[V:4] F,2G,4A,2E,4 | 
[V:1] A4F2G2A4 | 
[V:2] A8F4 | 
[V:3] z4z4f4 | 
[V:4] F,4D,8 | 
[V:1] G4D2G3F/E/D2 | 
[V:2] z4_B8 | 
[V:3] d12 | 
[V:4] G,8G,,4 | 
[V:1] C2D2E4A,4 | 
[V:2] A6G2F2D2 | 
[V:3] z4z4f4 | 
[V:4] A,,3B,,C,4D,4- | 
[V:1] z4z4A,4- | 
[V:2] FGA2_BG2FA4 | 
[V:3] d8z4 | 
[V:4] D,2C,2_B,,4A,,4 | 
[V:1] A,4_B,8 | 
[V:2] F4G8 | 
[V:3] f4d8 | 
[V:4] D,4G,,8 | 
[V:1] A,3B,C2D4C2 | 
[V:2] E6F2G2A2- | 
[V:3] c4A4z4 | 
[V:4] A,,6D,2B,,2A,,2 | 
[V:1] F2G2E4z2E2 | 
[V:2] A2G4A2E4 | 
[V:3] z4z4c4 | 
[V:4] D,2E,2C,2A,,3B,,C,2 | 
[V:1] D2C3B,A,4^G,2 | 
[V:2] z2e4d2d3c | 
[V:3] A4z4z4 | 
[V:4] D,2A,,2C,2D,2B,,4 | 
[V:1] A,4z4A4- | 
[V:2] e2f2e2d4cB | 
[V:3] c4A4z2A2 | 
[V:4] A,,3B,,C,2D,4F,2- | 
[V:1] A2GFG2c4B2 | 
[V:2] A3Bc3A2FG2 | 
[V:3] c2d2e4A2B2 | 
[V:4] F,2F,2C,4z2G,,2 | 
[V:1] A2B3AA4^G2 | 
[V:2] FEG2zBcde4 | 
[V:3] c2d4c2B4 | 
[V:4] A,,2G,,2G,2A,2E,4 | 
[V:1] A8G4 | 
[V:2] e2c3Bcde4 | 
[V:3] A4z4z4 | 
[V:4] A,,8C,4 | 
[V:1] F4E3FG4 | 
[V:2] d6e2c2d2- | 
[V:3] A8G3F | 
[V:4] D,4D,2C,3B,,G,,2 | 
[V:1] F2E3DD4^C2 | 
[V:2] d2c3BA4A2 | 
[V:3] D2G2A2D2E4 | 
[V:4] _B,,2C,2A,,2D,2A,,4 | 
[V:1] D8B,4 | 
[V:2] F3GA4G2E2 | 
[V:3] D4F4G4 | 
[V:4] z2D,4D,2E,4 | 
[V:1] C4D2D4CD | 
[V:2] E2A4A2_B4 | 
[V:3] A4F8 | 
[V:4] A,,4D,4_B,,4 | 
[V:1] E8F4 | 
[V:2] G2A4G2F4 | 
[V:3] E4z4A4 | 
[V:4] C,2A,,3B,,C,2D,4 | 
[V:1] E2E3DC2B,4 | 
[V:2] z2c3de4e2 | 
[V:3] A6G6 | 
[V:4] C,2A,,2C,3D,E,4 | 
[V:1] A,2C3DE2F2E2 | 
[V:2] e4c4d2e2 | 
[V:3] c4A4z2c2 | 
[V:4] A,,4z2A,,2D,2C,2 | 
[V:1] D2A4G2F4 | 
[V:2] f2ec2de2d4 | 
[V:3] A4z2c2A2z2 | 
[V:4] D,2A,,2C,4D,4 | 
[V:1] E6D2E2F2 | 
[V:2] A3GE2F2G2d2 | 
[V:3] c4A4c2A2 | 
[V:4] z2A,,4D,2C,2D,2 | 
[V:1] G2E4A3^GG^F | 
[V:2] B2c3de3dB2 | 
[V:3] z2G2A2c2B4 | 
[V:4] E,3D,C,B,,A,,2E,4 | 
[V:1] A4F2D2E4 | 
[V:2] c2zcdf2e/d/cBc2 | 
[V:3] A12 | 
[V:4] A,,4z4A,,4 | 
[V:1] D2F2E2G3F/E/D2 | 
[V:2] d4z4D4 | 
[V:3] F4G8 | 
[V:4] D,4C,4B,,4 | 
[V:1] C4D2F4ED | 
[V:2] E4F2DF2GAB | 
[V:3] A12 | 
[V:4] A,,4D,8 | 
[V:1] !fermata!A12 & E12 ||  
[V:2] !fermata!A12 ||  
[V:3] !fermata!A12 ||  
[V:4] !fermata!A,,12 ||  
[V:1]  [K:C] [K:clef=treble][M:4/2]A6G2 | 
[V:2]  [K:C] [K:clef=treble-8][M:4/2]d4c2B2 | 
[V:3]  [K:C] [K:clef=treble-8][M:4/2]z8 | 
[V:4]  [K:C] [K:clef=bass][M:4/2]z8 | 
[V:1] F4G2F2 | 
[V:2] A3G/F/E2D2 | 
[V:3] z8 | 
[V:4] z8 | 
[V:1] E2DCB,2A,2 | 
[V:2] zG2FG2A2 | 
[V:3] z8 | 
[V:4] z8 | 
[V:1] zD2CD2E2 | 
[V:2] G3EF2E2 | 
[V:3] z8 | 
[V:4] z8 | 
[V:1] D3B,C2B,2 | 
[V:2] F2G2A2zG | 
[V:3] z8 | 
[V:4] z8 | 
[V:1] C2D2E2zD | 
[V:2] Ac_B2c2d2 | 
[V:3] z8 | 
[V:4] z8 | 
[V:1] EGF2G2A2 | 
[V:2] z2zDEGF2 | 
[V:3] z8 | 
[V:4] z8 | 
[V:1] D2CF2E/D/ED- | 
[V:2] G2A2D2CF- | 
[V:3] z8 | 
[V:4] z8 | 
[V:1] D^C/B,/C2D4 | 
[V:2] FE/D/E2D4 | 
[V:3] z8 | 
[V:4] z8 | 
[V:1] C2D2A,2C2- | 
[V:2] z2D2F3E | 
[V:3] z8 | 
[V:4] z8 | 
[V:1] CB,CDE2zF | 
[V:2] FGA2zcd2 | 
[V:3] z8 | 
[V:4] z8 | 
[V:1] G2c2BAA2- | 
[V:2] e2A2d2c2 | 
[V:3] z8 | 
[V:4] z8 | 
[V:1] A2G2A2F2 | 
[V:2] B4A4 | 
[V:3] z8 | 
[V:4] z8 | 
[V:1] E2G4F2- | 
[V:2] c3B/A/G2A2 | 
[V:3] z8 | 
[V:4] z8 | 
[V:1] F2E2D3C/B,/ | 
[V:2] D2G6 | 
[V:3] z8 | 
[V:4] z8 | 
[V:1] A,2z2C2D2 | 
[V:2] F2E3D/C/B,2 | 
[V:3] z8 | 
[V:4] z8 | 
[V:1] E2F3EE2- | 
[V:2] zA2DFGA2 | 
[V:3] z8 | 
[V:4] z8 | 
[V:1] EDDCE2C2 | 
[V:2] F4E2A2 | 
[V:3] z8 | 
[V:4] z8 | 
[V:1] D3CB,A,B,2 | 
[V:2] F2G3FG2 | 
[V:3] z8 | 
[V:4] z8 | 
[V:1] A,2z2D2E2- | 
[V:2] A2F2G3F | 
[V:3] z8 | 
[V:4] z8 | 
[V:1] EFG2F2ED | 
[V:2] EDE2D2G2 | 
[V:3] z8 | 
[V:4] z8 | 
[V:1] C2F2EA2G/A/ | 
[V:2] A3Bc2F2 | 
[V:3] z8 | 
[V:4] z8 | 
[V:1] _BA2G/F/E2D2 | 
[V:2] z2D2C2F2- | 
[V:3] z8 | 
[V:4] z8 | 
[V:1] FE2CDEF2 | 
[V:2] FGA2_BA2G/F/ | 
[V:3] z8 | 
[V:4] z8 | 
[V:1] G2FA2GE2 | 
[V:2] E2D2FE2C | 
[V:3] z8 | 
[V:4] z8 | 
[V:1] DC2A,B,2A,2 | 
[V:2] DEF2G2FA- | 
[V:3] z8 | 
[V:4] z8 | 
[V:1] z2G2A3G/F/ | 
[V:2] AGE2z2c2- | 
[V:3] z8 | 
[V:4] z8 | 
[V:1] G2Ac2BA2- | 
[V:2] cBc2d2cf- | 
[V:3] z8 | 
[V:4] z8 | 
[V:1] AGFE/D/CF2D | 
[V:2] fedc/B/A2D2 | 
[V:3] z8 | 
[V:4] z8 | 
[V:1] FEA3^GG^F | 
[V:2] A2c2B4 | 
[V:3] z8 | 
[V:4] z8 | 
[V:1] A8 ||  
[V:2] A8 ||  
[V:3] z8 ||  
[V:4] z8 ||  
[V:1]  [K:C] [K:clef=treble][M:4/2]E8 | 
[V:2]  [K:C] [K:clef=treble-8][M:4/2]A8 | 
[V:3]  [K:C] [K:clef=treble-8][M:4/2]z8 | 
[V:4]  [K:C] [K:clef=bass][M:4/2]A,,8 | 
[V:1] F4E4 | 
[V:2] A4c4- | 
[V:3] z8 | 
[V:4] D,4C,4 | 
[V:1] A8 | 
[V:2] c2A2c2d2 | 
[V:3] z8 | 
[V:4] F,6E,2 | 
[V:1] G4F4 | 
[V:2] e4d4 | 
[V:3] z8 | 
[V:4] C,4D,4 | 
[V:1] E8 | 
[V:2] z4G4 | 
[V:3] c8 | 
[V:4] E,2C,4B,,C, | 
[V:1] D4F4 | 
[V:2] F4D4 | 
[V:3] A8 | 
[V:4] D,8 | 
[V:1] E2C3DE2- | 
[V:2] E4A4- | 
[V:3] z8 | 
[V:4] C,4A,,4 | 
[V:1] EDCB,A,4 | 
[V:2] A2G2A2B2 | 
[V:3] c8 | 
[V:4] z4A,,4- | 
[V:1] z2E2F2A2- | 
[V:2] c4d2f2 | 
[V:3] A8 | 
[V:4] A,,4D,4 | 
[V:1] A2G2F2ED | 
[V:2] e4A4- | 
[V:3] z8 | 
[V:4] C,4D,4 | 
[V:1] E4A,4 | 
[V:2] A8 | 
[V:3] c8 | 
[V:4] A,,6B,,2 | 
[V:1] E4D4- | 
[V:2] G8- | 
[V:3] c4B4- | 
[V:4] C,4G,,4- | 
[V:1] D4C4 | 
[V:2] G4E4 | 
[V:3] B2A2A4- | 
[V:4] G,,4A,,4 | 
[V:1] B,8 | 
[V:2] z4E4 | 
[V:3] A2^G^F^G4 | 
[V:4] E,8 | 
[V:1] A,4C4 | 
[V:2] F2E4DE | 
[V:3] A8- | 
[V:4] A,,8 | 
[V:1] D3EFGA2- | 
[V:2] F2G2A2Bc | 
[V:3] A8 | 
[V:4] D,8- | 
[V:1] AGFEF4 | 
[V:2] d2cBA2B2 | 
[V:3] F8 | 
[V:4] D,8 | 
[V:1] E3FG2G2- | 
[V:2] c6BA | 
[V:3] G8 | 
[V:4] C,8- | 
[V:1] GFED^C3B, | 
[V:2] G4A4 | 
[V:3] E8 | 
[V:4] C,4A,,4 | 
[V:1] D2A,2z2D2 | 
[V:2] F2A4GF | 
[V:3] D4F4 | 
[V:4] D,8 | 
[V:1] E2G4FE | 
[V:2] E4D4 | 
[V:3] G4A4- | 
[V:4] C,4z4 | 
[V:1] F2EFG2E2- | 
[V:2] d4B4 | 
[V:3] A4G4 | 
[V:4] D,4E,4 | 
[V:1] E2F2E2A2- | 
[V:2] c2d2e4- | 
[V:3] A4c4 | 
[V:4] A,,8 | 
[V:1] A2^G^FG4 | 
[V:2] e2c2d2e2 | 
[V:3] B8 | 
[V:4] E,8 | 
[V:1] A3GE2F2- | 
[V:2] c6A2 | 
[V:3] A8 | 
[V:4] A,,3B,,C,2D,2- | 
[V:1] FEDCB,4 | 
[V:2] F2EFG4 | 
[V:3] d8 | 
[V:4] D,C,B,,A,,G,,2F,,2 | 
[V:1] z2A,3B,C2 | 
[V:2] E6G2- | 
[V:3] c8 | 
[V:4] A,,4C,4 | 
[V:1] D4C2F2- | 
[V:2] G4c4- | 
[V:3] B4A4- | 
[V:4] G,,4A,,4 | 
[V:1] F2E2D4- | 
[V:2] c2B2A2B2 | 
[V:3] A2G2F4 | 
[V:4] C,4D,4 | 
[V:1] D2^CB,C4 | 
[V:2] A8- | 
[V:3] E8 | 
[V:4] A,,8 | 
[V:1] D8 | 
[V:2] A8 | 
[V:3] D8- | 
[V:4] z4D,4- | 
[V:1] F8 | 
[V:2] d8 | 
[V:3] D4A4- | 
[V:4] D,4D,4 | 
[V:1] E4F4 | 
[V:2] z4c4 | 
[V:3] A8 | 
[V:4] C,4A,,4 | 
[V:1] G4E4- | 
[V:2] d4A4 | 
[V:3] B4c4- | 
[V:4] G,,4A,,4- | 
[V:1] E2D2C4 | 
[V:2] e8 | 
[V:3] c2B2A4 | 
[V:4] A,,2B,,2C,2D,2 | 
[V:1] B,8 | 
[V:2] z4e4- | 
[V:3] ^G6^F2 | 
[V:4] E,8 | 
[V:1] A,4z2A2- | 
[V:2] e2d2c2BA | 
[V:3] A8 | 
[V:4] A,,8 | 
[V:1] A2G2E2F2- | 
[V:2] G4c4- | 
[V:3] z4A4 | 
[V:4] C,4A,,4 | 
[V:1] FEE6- | 
[V:2] c4c4 | 
[V:3] G4E4 | 
[V:4] C,8 | 
[V:1] E2DCD4 | 
[V:2] A4_B4 | 
[V:3] F8 | 
[V:4] D,4_B,,4 | 
[V:1] E4C4 | 
[V:2] G4A4- | 
[V:3] E8 | 
[V:4] C,4A,,4- | 
[V:1] z4E4 | 
[V:2] A2B2c4 | 
[V:3] A8- | 
[V:4] A,,8 | 
[V:1] F4G4 | 
[V:2] d4G4 | 
[V:3] A4B4 | 
[V:4] D,4z4 | 
[V:1] E4D4 | 
[V:2] A4F4 | 
[V:3] c4d4 | 
[V:4] A,,4D,4 | 
[V:1] G3AB2c2- | 
[V:2] G6AB | 
[V:3] B4e4- | 
[V:4] E,6C,2- | 
[V:1] c2A2BAGF | 
[V:2] c4B4 | 
[V:3] e4d4 | 
[V:4] C,4G,4 | 
[V:1] E2c3BA2- | 
[V:2] c4d4 | 
[V:3] c4A4 | 
[V:4] A,4F,4 | 
[V:1] A2^G^FG4 | 
[V:2] e4z2e2 | 
[V:3] B8 | 
[V:4] E,8 | 
[V:1] A8 | 
[V:2] c2f4ed | 
[V:3] A8- | 
[V:4] A,,4D,4 | 
[V:1] z4A4 | 
[V:2] e4d4 | 
[V:3] A8 | 
[V:4] C,4D,4 | 
[V:1] G4E2F2- | 
[V:2] B4c2A2- | 
[V:3] z8 | 
[V:4] E,4C,2D,2- | 
[V:1] F2E2D3C | 
[V:2] AFG2A2GF | 
[V:3] z8 | 
[V:4] D,2E,2F,2E,D, | 
[V:1] E4D3C | 
[V:2] G4F4- | 
[V:3] c4A4 | 
[V:4] C,4D,4- | 
[V:1] A,4z2E2- | 
[V:2] F2EDE4- | 
[V:3] z4c4 | 
[V:4] D,2C,2A,,4 | 
[V:1] EDC2B,4 | 
[V:2] E2A2^G3^F | 
[V:3] A4z4 | 
[V:4] z2A,,2E,4 | 
[V:1] A,4z4 | 
[V:2] A2GFE2D2 | 
[V:3] c4c2B2- | 
[V:4] A,,3B,,C,2D,2 | 
[V:1] z8 | 
[V:2] z2c2d3e | 
[V:3] BAA3^G/^F/^G2 | 
[V:4] E,2C,2B,,4 | 
[V:1] z8 | 
[V:2] f2e4d2- | 
[V:3] A8 | 
[V:4] A,,3B,,C,2D,2- | 
[V:1] z8 | 
[V:2] dcA2B2G2- | 
[V:3] F4G4 | 
[V:4] D,2D,2G,,4 | 
[V:1] z8 | 
[V:2] G2FEF4 | 
[V:3] E4D2F2 | 
[V:4] C,4D,4 | 
[V:1] z8 | 
[V:2] z2E2F2D2 | 
[V:3] G2A4G2 | 
[V:4] E,2C,2D,2B,,2 | 
[V:1] z8 | 
[V:2] E2F2G4 | 
[V:3] A2c2B4 | 
[V:4] A,,4z2G,,2 | 
[V:1] z8 | 
[V:2] E2A3FG2 | 
[V:3] A4d4 | 
[V:4] A,,2C,2B,,4 | 
[V:1] z8 | 
[V:2] A3FG2A2 | 
[V:3] c4B2A2- | 
[V:4] A,,4z2A,,2 | 
[V:1] z8 | 
[V:2] D2d4^c2 | 
[V:3] AGF2E4 | 
[V:4] D,4A,,4 | 
[V:1] z8 | 
[V:2] d4B2A2 | 
[V:3] D6A2- | 
[V:4] z2D,4C,2 | 
[V:1] z4z2A,2- | 
[V:2] c3BG2A2 | 
[V:3] A4B2c2- | 
[V:4] A,,2C,2B,,2A,,2- | 
[V:1] A,B,C2D4 | 
[V:2] E4D4 | 
[V:3] cBA2G3F | 
[V:4] A,,G,,A,,2B,,4 | 
[V:1] C2D2E2F2- | 
[V:2] E4c2d2 | 
[V:3] A4z2A2 | 
[V:4] A,,6D,2 | 
[V:1] FEE4D2 | 
[V:2] B2c2A4 | 
[V:3] G2E2F4 | 
[V:4] E,2C,2D,4 | 
[V:1] E4F2A2- | 
[V:2] A2c4d2- | 
[V:3] E4A4- | 
[V:4] A,,4z2D,2 | 
[V:1] A2G2E2F2 | 
[V:2] d4c2A2 | 
[V:3] A2B2c2d2 | 
[V:4] F,2G,2A,2D,2 | 
[V:1] G2ABc2B2- | 
[V:2] G4A2B2 | 
[V:3] B2e4d2 | 
[V:4] E,2C,4G,2 | 
[V:1] BAA4^G2 | 
[V:2] c2d2e4 | 
[V:3] c2A2B4 | 
[V:4] A,2F,2E,4 | 
[V:1] A8 ||  
[V:2] A8 ||  
[V:3] A8 ||  
[V:4] A,,8 ||  
[V:1]  [K:C] [K:clef=treble][M:4/2]A8- | 
[V:2]  [K:C] [K:clef=treble-8][M:4/2]z8 | 
[V:3]  [K:C] [K:clef=treble-8][M:4/2]z8 | 
[V:4]  [K:C] [K:clef=bass][M:4/2]z8 | 
[V:1] A8 | 
[V:2] z8 | 
[V:3] z8 | 
[V:4] z8 | 
[V:1] G4F4- | 
[V:2] z8 | 
[V:3] z8 | 
[V:4] z8 | 
[V:1] F2EDE4 | 
[V:2] z8 | 
[V:3] z8 | 
[V:4] A,8- | 
[V:1] A,4z4 | 
[V:2] z8 | 
[V:3] z8 | 
[V:4] A,8 | 
[V:1] D8 | 
[V:2] z8 | 
[V:3] z8 | 
[V:4] G,4F,4- | 
[V:1] F4G4 | 
[V:2] z8 | 
[V:3] z8 | 
[V:4] F,2E,D,E,4 | 
[V:1] A8 | 
[V:2] z8 | 
[V:3] z8 | 
[V:4] A,,4z4 | 
[V:1] F4E2D2- | 
[V:2] z8 | 
[V:3] z8 | 
[V:4] D,8 | 
[V:1] D2C2B,4 | 
[V:2] z8 | 
[V:3] z8 | 
[V:4] F,4G,4 | 
[V:1] A,2z2F2E2 | 
[V:2] z8 | 
[V:3] z8 | 
[V:4] A,8 | 
[V:1] D2CB,C2B,2- | 
[V:2] z8 | 
[V:3] z8 | 
[V:4] F,4E,2D,2- | 
[V:1] B,A,A,4^G,2 | 
[V:2] z8 | 
[V:3] z8 | 
[V:4] D,2C,2B,,4 | 
[V:1] A,4z4 | 
[V:2] z8 | 
[V:3] z8 | 
[V:4] A,,4D,4- | 
[V:1] F4E4 | 
[V:2] z8 | 
[V:3] z8 | 
[V:4] D,2C,B,,C,4 | 
[V:1] F2A4GF | 
[V:2] z8 | 
[V:3] z8 | 
[V:4] z4F,4 | 
[V:1] G4A4 | 
[V:2] z8 | 
[V:3] z8 | 
[V:4] E,4F,2A,2- | 
[V:1] F4E4- | 
[V:2] z8 | 
[V:3] z8 | 
[V:4] A,2G,F,G,4 | 
[V:1] E2D2D4- | 
[V:2] z8 | 
[V:3] z8 | 
[V:4] A,4F,4 | 
[V:1] D2^CB,C4 | 
[V:2] z8 | 
[V:3] z8 | 
[V:4] E,8 | 
[V:1] D8 | 
[V:2] z4A4 | 
[V:3] z8 | 
[V:4] D,8 | 
[V:1] E4F4 | 
[V:2] A6GF | 
[V:3] z8 | 
[V:4] C,4D,4 | 
[V:1] D4C2E2- | 
[V:2] G4A4- | 
[V:3] z8 | 
[V:4] B,,4A,,4 | 
[V:1] E2DCB,4 | 
[V:2] A2GFG4 | 
[V:3] z8 | 
[V:4] E,8 | 
[V:1] z4A4 | 
[V:2] A2c4BA | 
[V:3] z8 | 
[V:4] A,,8 | 
[V:1] G4c4 | 
[V:2] B4A2c2 | 
[V:3] z8 | 
[V:4] E,4z2A,2 | 
[V:1] B4A4- | 
[V:2] d2e2c2f2- | 
[V:3] z8 | 
[V:4] G,2E,2F,2D,2 | 
[V:1] A2GFG3F | 
[V:2] f2ede4 | 
[V:3] z8 | 
[V:4] F,4C,4 | 
[V:1] F2A3GA2 | 
[V:2] d4c4 | 
[V:3] z8 | 
[V:4] D,4A,,4 | 
[V:1] B2^G3^FG2 | 
[V:2] B8 | 
[V:3] z8 | 
[V:4] z4E,4 | 
[V:1] A8- | 
[V:2] A8 | 
[V:3] z8 | 
[V:4] A,,2D,4C,B,, | 
[V:1] A8 | 
[V:2] z4A4 | 
[V:3] z8 | 
[V:4] C,2D,4C,2 | 
[V:1] z8 | 
[V:2] c4d4 | 
[V:3] E4F4 | 
[V:4] A,,4D,4 | 
[V:1] z8 | 
[V:2] e6c2 | 
[V:3] G2A4A2 | 
[V:4] C,4A,,4 | 
[V:1] z8 | 
[V:2] d4c2A2- | 
[V:3] F4E4 | 
[V:4] _B,,4C,4 | 
[V:1] z8 | 
[V:2] A2d4cB | 
[V:3] F4G4 | 
[V:4] D,4G,,4 | 
[V:1] z8 | 
[V:2] c4f4 | 
[V:3] E4D2A2- | 
[V:4] A,,4D,4 | 
[V:1] z8 | 
[V:2] e6d2- | 
[V:3] A2G2A2D2 | 
[V:4] E,4A,,2_B,,2- | 
[V:1] z8 | 
[V:2] d4c3B | 
[V:3] F2G2E4 | 
[V:4] B,,2G,,2A,,4 | 
[V:1] z8 | 
[V:2] d4c2A2- | 
[V:3] D4z2c2 | 
[V:4] B,,4A,,4 | 
[V:1] z8 | 
[V:2] AGA2B2c2- | 
[V:3] d2f2g2e2- | 
[V:4] D,4G,,2A,,2 | 
[V:1] z8 | 
[V:2] c2BA^G4 | 
[V:3] e2dcB4 | 
[V:4] C,2D,2E,4 | 
[V:1] z8 | 
[V:2] A4z2D2 | 
[V:3] A4d4 | 
[V:4] A,,2D,4C,B,, | 
[V:1] z8 | 
[V:2] E2F2G4 | 
[V:3] c4B4- | 
[V:4] A,,4G,,4 | 
[V:1] z8 | 
[V:2] E4F4 | 
[V:3] B2A2A4- | 
[V:4] C,4D,4 | 
[V:1] z8 | 
[V:2] D6CD | 
[V:3] A2^G^F^G4 | 
[V:4] B,,8 | 
[V:1] z8 | 
[V:2] E4D4 | 
[V:3] A4F2_B2- | 
[V:4] A,,4_B,,4 | 
[V:1] z8 | 
[V:2] z2d2c2e2- | 
[V:3] B2_B2A4 | 
[V:4] G,,4A,,4 | 
[V:1] z8 | 
[V:2] e2c2A2d2 | 
[V:3] G4F4 | 
[V:4] C,4D,4 | 
[V:1] z8 | 
[V:2] ed^cB^c4 | 
[V:3] E8 | 
[V:4] A,,8 | 
[V:1] z8 | 
[V:2] d4c2A2 | 
[V:3] D4z4 | 
[V:4] z2A,4G,F, | 
[V:1] z8 | 
[V:2] B4A2c2 | 
[V:3] d4c2A2 | 
[V:4] G,4A,4 | 
[V:1] z8 | 
[V:2] d3ef2e2- | 
[V:3] B4A4 | 
[V:4] z2D,4C,B,, | 
[V:1] z8 | 
[V:2] e2e2d2cB | 
[V:3] z2c2d3e | 
[V:4] A,,4z2D,2- | 
[V:1] z8 | 
[V:2] A4G4 | 
[V:3] f2e4e2 | 
[V:4] D,2C,6 | 
[V:1] z8 | 
[V:2] B2A4GF | 
[V:3] d2cBA4 | 
[V:4] G,,2A,,B,,C,2D,2- | 
[V:1] z8 | 
[V:2] E4D4 | 
[V:3] G4B2A2- | 
[V:4] D,2C,2D,4 | 
[V:1] z8 | 
[V:2] z2d2e2c2 | 
[V:3] A2GFE4 | 
[V:4] C,2D,2A,,4 | 
[V:1] z8 | 
[V:2] f6ed | 
[V:3] D4z2d2 | 
[V:4] z2D,4D,2 | 
[V:1] z8 | 
[V:2] c4z2F2 | 
[V:3] e2c2f4- | 
[V:4] A,4D,4 | 
[V:1] z8 | 
[V:2] G4A3B | 
[V:3] f2edc4 | 
[V:4] B,,4A,,4- | 
[V:1] z8 | 
[V:2] c2d4cB | 
[V:3] z2F2G4 | 
[V:4] A,,2_B,,2G,,4 | 
[V:1] z8 | 
[V:2] c2A4F2 | 
[V:3] A3Bc2d2- | 
[V:4] F,,3G,,A,,2_B,,2- | 
[V:1] z8 | 
[V:2] G4A4 | 
[V:3] d4c2A2- | 
[V:4] B,,2_B,,2A,,2C,2- | 
[V:1] z8 | 
[V:2] z4d4 | 
[V:3] A2F2G4 | 
[V:4] C,2D,2_B,,4 | 
[V:1] z8 | 
[V:2] c2e4d2 | 
[V:3] A4F4 | 
[V:4] A,,2C,2D,4 | 
[V:1] z8 | 
[V:2] c2B2c3B | 
[V:3] E8 | 
[V:4] A,,8 | 
[V:1] z8 | 
[V:2] d4e4 | 
[V:3] D4G4 | 
[V:4] z4C,4 | 
[V:1] z8 | 
[V:2] f4e2c2- | 
[V:3] F2A3GE2 | 
[V:4] D,4A,,4 | 
[V:1] z8 | 
[V:2] c2f3ee2- | 
[V:3] A4G2E2 | 
[V:4] z4C,4 | 
[V:1] z8 | 
[V:2] e2d2e4- | 
[V:3] F4E4 | 
[V:4] D,4A,,4 | 
[V:1] z8 | 
[V:2] e2c4A2- | 
[V:3] A4G2E2 | 
[V:4] z4C,4 | 
[V:1] z8 | 
[V:2] A2B2c2Bc | 
[V:3] F4E4 | 
[V:4] D,4A,,4 | 
[V:1] z8 | 
[V:2] dcBA^G3^F | 
[V:3] D6C2 | 
[V:4] B,,8 | 
[V:1] z8 ||  
[V:2] A8 ||  
[V:3] E8 ||  
[V:4] A,,8 ||  



